X: 19
T: Jackson's Fancy
R: jig
Z: 2012 John Chambers <jc:trillian.mit.edu>
B: NEFR #19
B: O'Neill's "1850" #905
M: 6/8
L: 1/8
K: D
|:\
"D"DFA def | "A7"edc "D"dAF | "D"DFA dAF | "Em"GEE "A7"E2F |\
"D"DFA def | "A7"edc "D"dAF | "D"DFA "A7"deg | fdc "D"d3 :|
|:\
"D"fed faf | "G"gbg "D"faf | "D"fed faf | "Em"gee "A7"eag |\
"D"fed faf | "G"gbg "A7"fag | "D"fed "A7"eag | fdc "D"d3 :|
